Numix-Circle/48x48/apps/cpuinfo.svg

<?xml version="1.0" encoding="UTF-8" standalone="no"?>
<svg
   xmlns:dc="http://purl.org/dc/elements/1.1/"
   xmlns:cc="http://creativecommons.org/ns#"
   xmlns:rdf="http://www.w3.org/1999/02/22-rdf-syntax-ns#"
   xmlns:svg="http://www.w3.org/2000/svg"
   xmlns="http://www.w3.org/2000/svg"
   xmlns:xlink="http://www.w3.org/1999/xlink"
   xmlns:sodipodi="http://sodipodi.sourceforge.net/DTD/sodipodi-0.dtd"
   xmlns:inkscape="http://www.inkscape.org/namespaces/inkscape"
   width="48"
   viewBox="0 0 13.546667 13.546667"
   height="48"
   id="svg2"
   version="1.1"
   inkscape:version="0.48.4 r9939"
   sodipodi:docname="cpuinfo.svg">
  <metadata
     id="metadata28">
    <rdf:RDF>
      <cc:Work
         rdf:about="">
        <dc:format>image/svg+xml</dc:format>
        <dc:type
           rdf:resource="http://purl.org/dc/dcmitype/StillImage" />
        <dc:title></dc:title>
      </cc:Work>
    </rdf:RDF>
  </metadata>
  <sodipodi:namedview
     pagecolor="#ffffff"
     bordercolor="#666666"
     borderopacity="1"
     objecttolerance="10"
     gridtolerance="10"
     guidetolerance="10"
     inkscape:pageopacity="0"
     inkscape:pageshadow="2"
     inkscape:window-width="1920"
     inkscape:window-height="1057"
     id="namedview26"
     showgrid="true"
     inkscape:zoom="19.348157"
     inkscape:cx="23.998819"
     inkscape:cy="24.001181"
     inkscape:window-x="1600"
     inkscape:window-y="0"
     inkscape:window-maximized="1"
     inkscape:current-layer="svg2"
     inkscape:snap-bbox="true"
     inkscape:bbox-paths="true"
     inkscape:bbox-nodes="true"
     inkscape:snap-bbox-edge-midpoints="true"
     inkscape:snap-bbox-midpoints="true"
     inkscape:object-paths="true"
     inkscape:snap-intersection-paths="true"
     inkscape:object-nodes="true"
     inkscape:snap-smooth-nodes="true">
    <inkscape:grid
       type="xygrid"
       id="grid2991" />
  </sodipodi:namedview>
  <defs
     id="defs4">
    <linearGradient
       id="linearGradient4460">
      <stop
         offset="0"
         style="stop-color:#b58900;stop-opacity:1;"
         id="stop7" />
      <stop
         offset="1"
         style="stop-color:#f2b700;stop-opacity:1;"
         id="stop9" />
    </linearGradient>
    <linearGradient
       gradientTransform="matrix(1.10528,0,0,1.10528,-134.28255,-295.77083)"
       xlink:href="#linearGradient4460"
       id="linearGradient3774"
       y1="279.096"
       y2="268.33"
       gradientUnits="userSpaceOnUse"
       x2="0" />
    <linearGradient
       inkscape:collect="always"
       xlink:href="#linearGradient4460"
       id="linearGradient3767"
       gradientUnits="userSpaceOnUse"
       gradientTransform="matrix(1.10528,0,0,1.10528,-134.28255,-295.77083)"
       y1="279.096"
       x2="0"
       y2="268.33" />
    <linearGradient
       id="linearGradient4460-1">
      <stop
         offset="0"
         style="stop-color:#004993"
         id="stop3923" />
      <stop
         offset="1"
         style="stop-color:#007ec8"
         id="stop3925" />
    </linearGradient>
    <linearGradient
       gradientTransform="matrix(1.10525 0 0 1.10525 -134.27874 -295.76183)"
       xlink:href="#linearGradient4460-1"
       id="linearGradient3002-5"
       y1="279.096"
       y2="268.33"
       gradientUnits="userSpaceOnUse"
       x2="0" />
    <linearGradient
       id="linearGradient4460-50">
      <stop
         offset="0"
         style="stop-color:#2e8935;stop-opacity:1;"
         id="stop7-0" />
      <stop
         offset="1"
         style="stop-color:#42ae4b;stop-opacity:1;"
         id="stop9-8" />
    </linearGradient>
    <linearGradient
       gradientTransform="matrix(1.10525,0,0,1.10525,-134.27874,-295.76183)"
       xlink:href="#linearGradient4460-50"
       id="linearGradient3002"
       y1="279.096"
       y2="268.33"
       gradientUnits="userSpaceOnUse"
       x2="0" />
    <linearGradient
       inkscape:collect="always"
       xlink:href="#linearGradient4460-50"
       id="linearGradient3759"
       gradientUnits="userSpaceOnUse"
       gradientTransform="matrix(1.10525,0,0,1.10525,-134.27874,-295.76183)"
       y1="279.096"
       x2="0"
       y2="268.33" />
    <linearGradient
       id="linearGradient4460-8">
      <stop
         offset="0"
         style="stop-color:#7ac059;stop-opacity:1;"
         id="stop7-8" />
      <stop
         offset="1"
         style="stop-color:#96dc75;stop-opacity:1;"
         id="stop9-9" />
    </linearGradient>
    <linearGradient
       gradientTransform="matrix(1.10528,0,0,1.10528,-134.28255,-295.77083)"
       xlink:href="#linearGradient4460-8"
       id="linearGradient3774-0"
       y1="279.096"
       y2="268.33"
       gradientUnits="userSpaceOnUse"
       x2="0" />
    <linearGradient
       inkscape:collect="always"
       xlink:href="#linearGradient4460-8"
       id="linearGradient3767-0"
       gradientUnits="userSpaceOnUse"
       gradientTransform="matrix(1.10528,0,0,1.10528,-134.28255,-295.77083)"
       y1="279.096"
       x2="0"
       y2="268.33" />
    <linearGradient
       gradientTransform="translate(1004.3594,-1052.3622)"
       gradientUnits="userSpaceOnUse"
       y2="1028.3608"
       x2="45.000786"
       y1="1028.3608"
       x1="3.0019684"
       id="linearGradient3818"
       xlink:href="#linearGradient4460-5"
       inkscape:collect="always" />
    <linearGradient
       inkscape:collect="always"
       xlink:href="#linearGradient4460-5"
       id="linearGradient3024"
       gradientUnits="userSpaceOnUse"
       gradientTransform="matrix(1.10525,0,0,1.10525,-134.27874,-295.76183)"
       y1="279.09601"
       x2="0"
       y2="268.32999" />
    <linearGradient
       id="linearGradient4460-5">
      <stop
         id="stop7-3"
         style="stop-color:#e57735"
         offset="0" />
      <stop
         id="stop9-2"
         style="stop-color:#f0c718"
         offset="1" />
    </linearGradient>
    <linearGradient
       x2="0"
       gradientUnits="userSpaceOnUse"
       y2="268.32999"
       y1="279.09601"
       id="linearGradient3008"
       xlink:href="#linearGradient4460-5"
       gradientTransform="matrix(1.10525,0,0,1.10525,-134.27874,-295.76183)" />
    <linearGradient
       inkscape:collect="always"
       xlink:href="#linearGradient3795"
       id="linearGradient3068"
       gradientUnits="userSpaceOnUse"
       gradientTransform="translate(0,-2056.7244)"
       y1="1053.158"
       x2="0"
       y2="1004.847" />
    <linearGradient
       id="linearGradient3795">
      <stop
         id="stop7-6"
         style="stop-color:#a64e36;stop-opacity:1;"
         offset="0" />
      <stop
         id="stop9-7"
         style="stop-color:#617248"
         offset="1" />
    </linearGradient>
    <linearGradient
       gradientUnits="userSpaceOnUse"
       x2="0"
       y2="1004.847"
       y1="1053.158"
       id="linearGradient3801"
       xlink:href="#linearGradient3795"
       gradientTransform="translate(0,-2056.7244)" />
    <linearGradient
       gradientTransform="translate(-47.999983,-2056.7244)"
       gradientUnits="userSpaceOnUse"
       y2="1006.3622"
       x2="25"
       y1="1050.3622"
       x1="25"
       id="linearGradient3761"
       xlink:href="#linearGradient3795"
       inkscape:collect="always" />
    <linearGradient
       id="linearGradient3755">
      <stop
         id="stop3757"
         offset="0"
         style="stop-color:#a82945;stop-opacity:1;" />
      <stop
         id="stop3759"
         offset="1"
         style="stop-color:#ec607f;stop-opacity:1;" />
    </linearGradient>
  </defs>
  <rect
     id="rect14"
     style="opacity:0.5;fill:#ffffff;fill-rule:evenodd"
     height="12.982"
     rx="6.4910002"
     y="0.28200001"
     x="0.28200001"
     width="12.982" />
  <rect
     id="rect16"
     style="fill:url(#linearGradient3767);fill-rule:evenodd"
     height="11.853"
     rx="5.9260001"
     y="0.847"
     x="0.847"
     width="11.853"
     inkscape:export-filename="/home/nathanel/GitHub/cpuinfo.png"
     inkscape:export-xdpi="428.57999"
     inkscape:export-ydpi="428.57999" />
  <g
     style="fill:#f2f2f2;fill-opacity:1"
     transform="translate(3.8858025e-4,-3.9513112e-4)"
     id="g3049">
    <g
       style="fill:#f2f2f2;fill-opacity:1"
       id="g3069">
      <path
         id="rect2993"
         transform="matrix(0.28222223,0,0,0.28222223,-3.8860025e-4,3.9511112e-4)"
         d="M 19.875,9 C 19.384252,9 19,9.384252 19,9.875 L 19,13 17.34375,13 c -2.39803,0 -4.3125,1.91447 -4.3125,4.3125 l 0,0.6875 L 9.875,18 C 9.384252,18 9,18.384252 9,18.875 l 0,0.25 C 9,19.615748 9.384252,20 9.875,20 l 3.15625,0 0,2 L 9.875,22 C 9.384252,22 9,22.384252 9,22.875 l 0,0.25 C 9,23.615748 9.384252,24 9.875,24 l 3.15625,0 0,2 L 9.875,26 C 9.384252,26 9,26.384252 9,26.875 l 0,0.25 C 9,27.615748 9.384252,28 9.875,28 l 3.15625,0 0,2.6875 c 0,2.39803 1.91447,4.3125 4.3125,4.3125 L 19,35 19,38.125 C 19,38.615748 19.384252,39 19.875,39 l 0.25,0 C 20.615748,39 21,38.615748 21,38.125 L 21,35 l 2,0 0,3.125 C 23,38.615748 23.384252,39 23.875,39 l 0.25,0 C 24.615748,39 25,38.615748 25,38.125 L 25,35 l 2,0 0,3.125 C 27,38.615748 27.384252,39 27.875,39 l 0.25,0 C 28.615748,39 29,38.615748 29,38.125 L 29,35 30.6875,35 C 33.08553,35 35,33.08553 35,30.6875 L 35,28 38.125,28 C 38.615748,28 39,27.615748 39,27.125 l 0,-0.25 C 39,26.384252 38.615748,26 38.125,26 L 35,26 l 0,-2 3.125,0 C 38.615748,24 39,23.615748 39,23.125 l 0,-0.25 C 39,22.384252 38.615748,22 38.125,22 L 35,22 l 0,-2 3.125,0 C 38.615748,20 39,19.615748 39,19.125 l 0,-0.25 C 39,18.384252 38.615748,18 38.125,18 L 35,18 35,17.3125 C 35,14.91447 33.08553,13 30.6875,13 L 29,13 29,9.875 C 29,9.384252 28.615748,9 28.125,9 l -0.25,0 C 27.384252,9 27,9.384252 27,9.875 L 27,13 25,13 25,9.875 C 25,9.384252 24.615748,9 24.125,9 l -0.25,0 C 23.384252,9 23,9.384252 23,9.875 L 23,13 21,13 21,9.875 C 21,9.384252 20.615748,9 20.125,9 l -0.25,0 z m -1.34375,6 10.9375,0 C 31.43056,15 33,16.56944 33,18.53125 l 0,10.9375 C 33,31.43056 31.43056,33 29.46875,33 l -10.9375,0 c -1.96181,0 -3.5,-1.56944 -3.5,-3.53125 l 0,-10.9375 c 0,-1.96181 1.53819,-3.53125 3.5,-3.53125 z"
         style="fill:#f2f2f2;fill-opacity:1;stroke:none"
         inkscape:connector-curvature="0" />
      <path
         inkscape:connector-curvature="0"
         style="fill:#f2f2f2;fill-opacity:1;stroke:none"
         d="m 5.576686,4.798173 c -0.4305552,0 -0.774531,0.3439758 -0.774531,0.774531 l 0,2.39899 c 0,0.4305552 0.3439758,0.774531 0.774531,0.774531 l 2.39899,0 c 0.4305552,0 0.774531,-0.3439758 0.774531,-0.774531 l 0,-2.39899 c 0,-0.4305552 -0.3439758,-0.774531 -0.774531,-0.774531 l -2.39899,0 z"
         id="path3981" />
    </g>
  </g>
</svg>

<?xml version="1.0" encoding="UTF-8" standalone="no"?>
<svg
   xmlns:dc="http://purl.org/dc/elements/1.1/"
   xmlns:cc="http://creativecommons.org/ns#"
   xmlns:rdf="http://www.w3.org/1999/02/22-rdf-syntax-ns#"
   xmlns:svg="http://www.w3.org/2000/svg"
   xmlns="http://www.w3.org/2000/svg"
   xmlns:xlink="http://www.w3.org/1999/xlink"
   xmlns:sodipodi="http://sodipodi.sourceforge.net/DTD/sodipodi-0.dtd"
   xmlns:inkscape="http://www.inkscape.org/namespaces/inkscape"
   width="48"
   height="48"
   id="svg2"
   version="1.1"
   inkscape:version="0.48.4 r9939"
   sodipodi:docname="hwbrowser.svg">
  <defs
     id="defs4">
    <linearGradient
       id="linearGradient3755">
      <stop
         style="stop-color:#a82945;stop-opacity:1;"
         offset="0"
         id="stop3757" />
      <stop
         style="stop-color:#ec607f;stop-opacity:1;"
         offset="1"
         id="stop3759" />
    </linearGradient>
    <linearGradient
       inkscape:collect="always"
       xlink:href="#linearGradient3795"
       id="linearGradient3761"
       x1="25"
       y1="1050.3622"
       x2="25"
       y2="1006.3622"
       gradientUnits="userSpaceOnUse"
       gradientTransform="translate(-47.999983,-2056.7244)" />
    <linearGradient
       gradientTransform="translate(0,-2056.7244)"
       xlink:href="#linearGradient3795"
       id="linearGradient3801"
       y1="1053.158"
       y2="1004.847"
       x2="0"
       gradientUnits="userSpaceOnUse" />
    <linearGradient
       id="linearGradient3795">
      <stop
         offset="0"
         style="stop-color:#a64e36;stop-opacity:1;"
         id="stop7" />
      <stop
         offset="1"
         style="stop-color:#617248"
         id="stop9" />
    </linearGradient>
    <linearGradient
       y2="1004.847"
       x2="0"
       y1="1053.158"
       gradientTransform="translate(0,-2056.7244)"
       gradientUnits="userSpaceOnUse"
       id="linearGradient3068"
       xlink:href="#linearGradient3795"
       inkscape:collect="always" />
    <linearGradient
       gradientTransform="matrix(1.10525,0,0,1.10525,-134.27874,-295.76183)"
       xlink:href="#linearGradient4460-5"
       id="linearGradient3008"
       y1="279.09601"
       y2="268.32999"
       gradientUnits="userSpaceOnUse"
       x2="0" />
    <linearGradient
       id="linearGradient4460-5">
      <stop
         offset="0"
         style="stop-color:#e57735"
         id="stop7-3" />
      <stop
         offset="1"
         style="stop-color:#f0c718"
         id="stop9-2" />
    </linearGradient>
    <linearGradient
       y2="268.32999"
       x2="0"
       y1="279.09601"
       gradientTransform="matrix(1.10525,0,0,1.10525,-134.27874,-295.76183)"
       gradientUnits="userSpaceOnUse"
       id="linearGradient3024"
       xlink:href="#linearGradient4460-5"
       inkscape:collect="always" />
    <linearGradient
       inkscape:collect="always"
       xlink:href="#linearGradient4460-5"
       id="linearGradient3818"
       x1="3.0019684"
       y1="1028.3608"
       x2="45.000786"
       y2="1028.3608"
       gradientUnits="userSpaceOnUse"
       gradientTransform="translate(1004.3594,-1052.3622)" />
    <linearGradient
       y2="268.33"
       x2="0"
       y1="279.096"
       gradientTransform="matrix(1.10528,0,0,1.10528,-134.28255,-295.77083)"
       gradientUnits="userSpaceOnUse"
       id="linearGradient3767"
       xlink:href="#linearGradient4460"
       inkscape:collect="always" />
    <linearGradient
       x2="0"
       gradientUnits="userSpaceOnUse"
       y2="268.33"
       y1="279.096"
       id="linearGradient3774"
       xlink:href="#linearGradient4460"
       gradientTransform="matrix(1.10528,0,0,1.10528,-134.28255,-295.77083)" />
    <linearGradient
       id="linearGradient4460">
      <stop
         id="stop7-8"
         style="stop-color:#7ac059;stop-opacity:1;"
         offset="0" />
      <stop
         id="stop9-9"
         style="stop-color:#96dc75;stop-opacity:1;"
         offset="1" />
    </linearGradient>
    <linearGradient
       y2="268.33"
       x2="0"
       y1="279.096"
       gradientTransform="matrix(1.10525,0,0,1.10525,-134.27874,-295.76183)"
       gradientUnits="userSpaceOnUse"
       id="linearGradient3759"
       xlink:href="#linearGradient4460-50"
       inkscape:collect="always" />
    <linearGradient
       x2="0"
       gradientUnits="userSpaceOnUse"
       y2="268.33"
       y1="279.096"
       id="linearGradient3002"
       xlink:href="#linearGradient4460-50"
       gradientTransform="matrix(1.10525,0,0,1.10525,-134.27874,-295.76183)" />
    <linearGradient
       id="linearGradient4460-50">
      <stop
         id="stop7-0"
         style="stop-color:#2e8935;stop-opacity:1;"
         offset="0" />
      <stop
         id="stop9-8"
         style="stop-color:#42ae4b;stop-opacity:1;"
         offset="1" />
    </linearGradient>
    <linearGradient
       x2="0"
       gradientUnits="userSpaceOnUse"
       y2="268.33"
       y1="279.096"
       id="linearGradient3002-5"
       xlink:href="#linearGradient4460-1"
       gradientTransform="matrix(1.10525 0 0 1.10525 -134.27874 -295.76183)" />
    <linearGradient
       id="linearGradient4460-1">
      <stop
         id="stop3923"
         style="stop-color:#004993"
         offset="0" />
      <stop
         id="stop3925"
         style="stop-color:#007ec8"
         offset="1" />
    </linearGradient>
  </defs>
  <sodipodi:namedview
     id="base"
     pagecolor="#ffffff"
     bordercolor="#666666"
     borderopacity="1.0"
     inkscape:pageopacity="0.0"
     inkscape:pageshadow="2"
     inkscape:zoom="19.348157"
     inkscape:cx="23.947923"
     inkscape:cy="23.999617"
     inkscape:document-units="px"
     inkscape:current-layer="g3049"
     showgrid="true"
     showguides="true"
     inkscape:guide-bbox="true"
     inkscape:window-width="1920"
     inkscape:window-height="1057"
     inkscape:window-x="1600"
     inkscape:window-y="0"
     inkscape:window-maximized="1"
     inkscape:object-paths="true"
     inkscape:snap-intersection-paths="true"
     inkscape:object-nodes="true"
     inkscape:snap-smooth-nodes="true"
     inkscape:snap-midpoints="true"
     inkscape:snap-object-midpoints="true"
     inkscape:snap-center="true">
    <inkscape:grid
       type="xygrid"
       id="grid3763"
       empspacing="5"
       visible="true"
       enabled="true"
       snapvisiblegridlinesonly="true" />
    <sodipodi:guide
       orientation="0,1"
       position="22,1"
       id="guide3783" />
  </sodipodi:namedview>
  <metadata
     id="metadata7">
    <rdf:RDF>
      <cc:Work
         rdf:about="">
        <dc:format>image/svg+xml</dc:format>
        <dc:type
           rdf:resource="http://purl.org/dc/dcmitype/StillImage" />
        <dc:title></dc:title>
      </cc:Work>
    </rdf:RDF>
  </metadata>
  <g
     inkscape:label="Layer 1"
     inkscape:groupmode="layer"
     id="layer1"
     transform="translate(0,-1004.3622)">
    <rect
       id="rect14-2"
       style="opacity:0.50000000000000000;fill:#f9f9f9;fill-rule:evenodd;fill-opacity:1"
       height="45.999214"
       rx="22.999607"
       y="1005.363"
       x="1"
       width="45.999214" />
    <rect
       id="rect16"
       style="fill:url(#linearGradient3818);fill-opacity:1.0;fill-rule:evenodd"
       height="41.998817"
       rx="21.001181"
       y="-45.000786"
       x="1007.3614"
       width="41.998817"
       transform="matrix(0,1,-1,0,0,0)" />
    <g
       id="g3049"
       transform="matrix(3.543307,0,0,3.543307,0.00137693,1004.3608)"
       style="fill:#f2f2f2;fill-opacity:1">
      <g
         id="g3069"
         style="fill:#f2f2f2;fill-opacity:1">
        <path
           style="fill:#f2f2f2;fill-opacity:1;stroke:none"
           d="M 19.875 9 C 19.384252 9 19 9.384252 19 9.875 L 19 13 L 17.34375 13 C 14.94572 13 13.03125 14.91447 13.03125 17.3125 L 13.03125 18 L 9.875 18 C 9.384252 18 9 18.384252 9 18.875 L 9 19.125 C 9 19.615748 9.384252 20 9.875 20 L 13.03125 20 L 13.03125 22 L 9.875 22 C 9.384252 22 9 22.384252 9 22.875 L 9 23.125 C 9 23.615748 9.384252 24 9.875 24 L 13.03125 24 L 13.03125 26 L 9.875 26 C 9.384252 26 9 26.384252 9 26.875 L 9 27.125 C 9 27.615748 9.384252 28 9.875 28 L 13.03125 28 L 13.03125 30.6875 C 13.03125 33.08553 14.94572 35 17.34375 35 L 19 35 L 19 38.125 C 19 38.615748 19.384252 39 19.875 39 L 20.125 39 C 20.615748 39 21 38.615748 21 38.125 L 21 35 L 23 35 L 23 38.125 C 23 38.615748 23.384252 39 23.875 39 L 24.125 39 C 24.615748 39 25 38.615748 25 38.125 L 25 35 L 27 35 L 27 38.125 C 27 38.615748 27.384252 39 27.875 39 L 28.125 39 C 28.615748 39 29 38.615748 29 38.125 L 29 35 L 30.6875 35 C 33.08553 35 35 33.08553 35 30.6875 L 35 28 L 38.125 28 C 38.615748 28 39 27.615748 39 27.125 L 39 26.875 C 39 26.384252 38.615748 26 38.125 26 L 35 26 L 35 24 L 38.125 24 C 38.615748 24 39 23.615748 39 23.125 L 39 22.875 C 39 22.384252 38.615748 22 38.125 22 L 35 22 L 35 20 L 38.125 20 C 38.615748 20 39 19.615748 39 19.125 L 39 18.875 C 39 18.384252 38.615748 18 38.125 18 L 35 18 L 35 17.3125 C 35 14.91447 33.08553 13 30.6875 13 L 29 13 L 29 9.875 C 29 9.384252 28.615748 9 28.125 9 L 27.875 9 C 27.384252 9 27 9.384252 27 9.875 L 27 13 L 25 13 L 25 9.875 C 25 9.384252 24.615748 9 24.125 9 L 23.875 9 C 23.384252 9 23 9.384252 23 9.875 L 23 13 L 21 13 L 21 9.875 C 21 9.384252 20.615748 9 20.125 9 L 19.875 9 z M 18.53125 15 L 29.46875 15 C 31.43056 15 33 16.56944 33 18.53125 L 33 29.46875 C 33 31.43056 31.43056 33 29.46875 33 L 18.53125 33 C 16.56944 33 15.03125 31.43056 15.03125 29.46875 L 15.03125 18.53125 C 15.03125 16.56944 16.56944 15 18.53125 15 z "
           transform="matrix(0.28222223,0,0,0.28222223,-3.8860025e-4,3.9511112e-4)"
           id="rect2993" />
        <path
           id="path3981"
           d="m 5.576686,4.798173 c -0.4305552,0 -0.774531,0.3439758 -0.774531,0.774531 l 0,2.39899 c 0,0.4305552 0.3439758,0.774531 0.774531,0.774531 l 2.39899,0 c 0.4305552,0 0.774531,-0.3439758 0.774531,-0.774531 l 0,-2.39899 c 0,-0.4305552 -0.3439758,-0.774531 -0.774531,-0.774531 l -2.39899,0 z"
           style="fill:#f2f2f2;fill-opacity:1;stroke:none"
           inkscape:connector-curvature="0" />
      </g>
    </g>
  </g>
</svg>
